!!!CDT:
!!!PTL: Il primo libro de madrigali a cinque voci
!!!PPP: Rome
!!!PPR: Lugii Zanetti
!!!PDT: 1605
!!!RISM: C 2212
!!!rime:
!!!AGN: Madrigal
!!!SCT: Tsg12099c
!!!SCA: Tsg12099c
!!!voices:
!!!COM: Cifra, Antonio
!!!OTL: Ed amando morrò: felice giorno
**kern	**text	**kern	**text	**kern	**text	**kern	**text	**kern	**text
*part5	*part5	*part4	*part4	*part3	*part3	*part2	*part2	*part1	*part1
*staff5	*staff5	*staff4	*staff4	*staff3	*staff3	*staff2	*staff2	*staff1	*staff1
*I"Basso	*	*I"Tenore	*	*I"Alto	*	*I"Quinto	*	*I"Canto	*
*I'B	*	*I'T	*	*I'A	*	*I'V	*	*I'C	*
*oclefF4	*	*oclefC4	*	*oclefC3	*	*oclefC1	*	*oclefC1	*
*clefF4	*	*clefGv2	*	*clefGv2	*	*clefG2	*	*clefG2	*
*k[b-]	*	*k[b-]	*	*k[b-]	*	*k[b-]	*	*k[b-]	*
*F:	*	*F:	*	*F:	*	*F:	*	*F:	*
*omet(C)	*	*omet(C)	*	*omet(C)	*	*omet(C)	*	*omet(C)	*
*M4/2	*	*M4/2	*	*M4/2	*	*M4/2	*	*M4/2	*
=1	=1	=1	=1	=1	=1	=1	=1	=1	=1
!!LO:TX:a:t=[Canzone.] Quarta ed ultima parte.
0r	.	0r	.	2r	.	1a	Et	1cc	Et
.	.	.	.	2f	Et	.	.	.	.
.	.	.	.	4f	a-	4a	a-	4cc	a-
.	.	.	.	4.f	-man-	4.a	-man-	4.cc	-man-
.	.	.	.	8f	-do	8a	-do	8cc	-do
.	.	.	.	4g	mor-	4g	mor-	4b-y	mor-
=2	=2	=2	=2	=2	=2	=2	=2	=2	=2
0r	.	0r	.	4.d	-rò:	4.f#X	-rò:	4.a	-rò:
.	.	.	.	8d	fe-	8f#i	fe-	8a	fe-
.	.	.	.	4d	-li-	4f#i	-li-	4a	-li-
.	.	.	.	4g	-ce	4g	-ce	4b-y	-ce
.	.	.	.	1f	gior-	1a	gior-	1cc	gior-
=3	=3	=3	=3	=3	=3	=3	=3	=3	=3
0r	.	0r	.	1f	-no,	1a	-no,	1cc	-no,
.	.	.	.	4r	.	4r	.	2r	.
.	.	.	.	2b-y	Quan-	2dd	Quan-	.	.
.	.	.	.	.	.	.	.	4r	.
.	.	.	.	8a	-do	8cc	-do	[4ff	Quan-
.	.	.	.	8g	che	8b-y	che	.	.
=4	=4	=4	=4	=4	=4	=4	=4	=4	=4
0r	.	0r	.	2.f	sia;	2.a	sia;	4ff]	.
.	.	.	.	.	.	.	.	8ee	-do
.	.	.	.	.	.	.	.	8dd	che
.	.	.	.	.	.	.	.	2cc	sia;
.	.	.	.	4f	ma	4a	ma	.	.
.	.	.	.	8d	più	8f	più	4r	.
.	.	.	.	8B-y	fe-	8d	fe-	.	.
.	.	.	.	8d	-li-	8f	-li-	4dd	ma
.	.	.	.	8e	-ce	8g	-ce	.	.
.	.	.	.	[2f	mol-	4a	mol-	8cc	più
.	.	.	.	.	.	.	.	8a	fe-
.	.	.	.	.	.	[4b-y	.	8dd	-li-
.	.	.	.	.	.	.	.	8dd	-ce
=5	=5	=5	=5	=5	=5	=5	=5	=5	=5
0r	.	0r	.	2f]	.	4b-]	.	2cc	mol-
.	.	.	.	.	.	4a	.	.	.
.	.	.	.	4B-y	-to,	4b-y	-to,	2dd	-to,
.	.	.	.	4b-y	Se	4dd	Se	.	.
.	.	.	.	4g	co-	4b-y	co-	1r	.
.	.	.	.	4a	-m'er-	4cc	-m'er-	.	.
.	.	.	.	4b-y	-ran-	4dd	-ran-	.	.
.	.	.	.	8aL	.	8ccL	.	.	.
.	.	.	.	8gJ	.	8b-yJ	.	.	.
=6	=6	=6	=6	=6	=6	=6	=6	=6	=6
0r	.	0r	.	2.f	.	2.a	.	4r	.
.	.	.	.	.	.	.	.	4cc	Se
.	.	.	.	.	.	.	.	4a	co-
.	.	.	.	8eL	.	8gL	.	4b-y	-m'er-
.	.	.	.	8dJ	.	8fJ	.	.	.
.	.	.	.	2c	.	2.e	-d'hor	4cc	-ran-
.	.	.	.	.	.	.	.	8b-yL	.
.	.	.	.	.	.	.	.	8aJ	.
.	.	.	.	2c	-d'hor	.	.	4g	-d'hor
.	.	.	.	.	.	4a	va-	4f	va-
=7	=7	=7	=7	=7	=7	=7	=7	=7	=7
0r	.	0r	.	0c	va-	4g	-d'a	4e	-d'a
.	.	.	.	.	.	4f	te	4a	te
.	.	.	.	.	.	4e	d'in-	4g	d'in-
.	.	.	.	.	.	4a	-tor-	4f	-tor-
.	.	.	.	.	.	8gL	.	8eL	.
.	.	.	.	.	.	8f	.	8d	.
.	.	.	.	.	.	8g	.	8e	.
.	.	.	.	.	.	8aJ	.	8fJ	.
.	.	.	.	.	.	8gL	.	8eL	.
.	.	.	.	.	.	8f	.	8d	.
.	.	.	.	.	.	8g	.	8e	.
.	.	.	.	.	.	8aJ	.	8fJ	.
=8	=8	=8	=8	=8	=8	=8	=8	=8	=8
0r	.	0r	.	1c	-do,	1g	.	2e	.
.	.	.	.	.	.	.	.	4e	-no,
.	.	.	.	.	.	.	.	4e	Se
.	.	.	.	4r	.	2a	-no,	2cc	co-
.	.	.	.	4f	Se	.	.	.	.
.	.	.	.	4e	co-	4r	.	2cc	-m'er-
.	.	.	.	4f	-m'er-	4f	Se	.	.
=9	=9	=9	=9	=9	=9	=9	=9	=9	=9
0r	.	0r	.	4g	-ran-	4e	co-	2cc	-ran-
.	.	.	.	4a	-d'hor	4f	-m'er-	.	.
.	.	.	.	4e	va-	4g	-ran-	2cc	-d'hor
.	.	.	.	4f	-d'a	4a	-d'hor	.	.
.	.	.	.	4g	te	4e	va-	1cc	va-
.	.	.	.	4a	d'in-	4f	-d'a	.	.
.	.	.	.	4e	-tor-	4g	te	.	.
.	.	.	.	[4f	.	4a	d'in-	.	.
=10	=10	=10	=10	=10	=10	=10	=10	=10	=10
0r	.	0r	.	4f]	.	4a	-tor-	0cc	-do,
.	.	.	.	8eL	.	8gL	.	.	.
.	.	.	.	8dJ	.	8fJ	.	.	.
.	.	.	.	8eL	.	8gL	.	.	.
.	.	.	.	8f	.	8a	.	.	.
.	.	.	.	8e	.	8g	.	.	.
.	.	.	.	8dJ	.	8fJ	.	.	.
.	.	.	.	8eL	.	8gL	.	.	.
.	.	.	.	8f	.	8a	.	.	.
.	.	.	.	8e	.	8g	.	.	.
.	.	.	.	8dJ	.	8fJ	.	.	.
.	.	.	.	2e	.	2g	.	.	.
=11	=11	=11	=11	=11	=11	=11	=11	=11	=11
0r	.	0r	.	2f	-no,	2a	-no,	4r	.
.	.	.	.	.	.	.	.	4dd	Se
.	.	.	.	2f	hor	4r	.	4cc	co-
.	.	.	.	.	.	4dd	Se	4b-y	-m'er-
.	.	.	.	[1f	va-	4cc	co-	4a	-ran-
.	.	.	.	.	.	4b-y	-m'er-	4dd	-d'hor
.	.	.	.	.	.	4a	-ran-	4cc	va-
.	.	.	.	.	.	4dd	-d'hor	4b-y	-d'a
=12	=12	=12	=12	=12	=12	=12	=12	=12	=12
0r	.	0r	.	1f]	.	4cc	va-	4a	te
.	.	.	.	.	.	4b-y	-d'a	4dd	d'in-
.	.	.	.	.	.	4a	te	4cc	-tor-
.	.	.	.	.	.	4dd	d'in-	4b-y	.
.	.	.	.	1f	-d'a-	8ccL	-tor-	8aL	.
.	.	.	.	.	.	8b-y	.	8g	.
.	.	.	.	.	.	8cc	.	8a	.
.	.	.	.	.	.	8ddJ	.	8b-yJ	.
.	.	.	.	.	.	8ccL	.	8aL	.
.	.	.	.	.	.	8b-y	.	8g	.
.	.	.	.	.	.	8cc	.	8a	.
.	.	.	.	.	.	8ddJ	.	8b-yJ	.
=13	=13	=13	=13	=13	=13	=13	=13	=13	=13
0r	.	0r	.	2.f	-te	4.cc	.	4.a	.
.	.	.	.	.	.	8b-y	.	8b-y	.
.	.	.	.	.	.	8aL	.	8ccL	.
.	.	.	.	.	.	8g	.	8b-y	.
.	.	.	.	4f	d'in-	8a	.	8cc	.
.	.	.	.	.	.	8b-yJ	.	8ddJ	.
.	.	.	.	8fL	-tor-	8aL	.	[1cc	.
.	.	.	.	8e	.	8g	.	.	.
.	.	.	.	8f	.	8a	.	.	.
.	.	.	.	8gJ	.	8b-yJ	.	.	.
.	.	.	.	8fL	.	8aL	.	.	.
.	.	.	.	8e	.	8g	.	.	.
.	.	.	.	8f	.	8a	.	.	.
.	.	.	.	8gJ	.	8b-yJ	.	.	.
=14	=14	=14	=14	=14	=14	=14	=14	=14	=14
0r	.	0r	.	2f	.	2a	.	2cc]	.
.	.	.	.	2B-y	-no,	2b-y	-no,	2dd	-no,
.	.	.	.	4r	.	4r	.	4r	.
.	.	.	.	4F	Al-	4a	Al-	4f	Al-
.	.	.	.	4c	-l'hor	4g	-l'hor	4e	-l'hor
.	.	.	.	4d	sa-	4f	sa-	4d	sa-
=15	=15	=15	=15	=15	=15	=15	=15	=15	=15
0r	.	0r	.	2.A	-rò	4e	-rò	2.c#X	-rò
.	.	.	.	.	.	4e	den-	.	.
.	.	.	.	.	.	4e	-tr'al	.	.
.	.	.	.	4A	den-	4e	tuo	4c#i	den-
.	.	.	.	4A	-tr'al	2.f	grem-	4c#i	-tr'al
.	.	.	.	4A	tuo	.	.	4c#i	tuo
.	.	.	.	[2B-y	grem-	.	.	[2d	grem-
.	.	.	.	.	.	4f	-b'ac-	.	.
=16	=16	=16	=16	=16	=16	=16	=16	=16	=16
0r	.	0r	.	4B-]	.	0g	-col-	4d]	.
.	.	.	.	4B-y	-b'ac-	.	.	4d	-b'ac-
.	.	.	.	2.c	-col-	.	.	2.e	-col-
.	.	.	.	8BnXL	.	.	.	2f	.
.	.	.	.	8AJ	.	.	.	.	.
.	.	.	.	4BnX	.	.	.	.	.
.	.	.	.	4c	.	.	.	4e	.
=17	=17	=17	=17	=17	=17	=17	=17	=17	=17
2r	.	1c	Fac-	2F	-to.	2a	-to.	2f	-to.
2F	Fac-	.	.	2f	Fac-	2a	Fac-	2cc	Fac-
2F	-cian	2A	-cian	2f	-cian	2a	-cian	2cc	-cian
[2D	l'a-	[2F	l'a-	[2f	l'a-	[2a	l'a-	[2dd	l'a-
=18	=18	=18	=18	=18	=18	=18	=18	=18	=18
4D]	.	4F]	.	4f]	.	4a]	.	4dd]	.
4D	-ni-	4F	-ni-	4f	-ni-	4a	-ni-	4dd	-ni-
2AA	-m'a-	2F	-m'a-	2f	-m'a-	2a	-m'a-	2cc	-m'a-
1BB-y	-mi-	1F	-mi-	1d	-mi-	1f	-mi-	1b-y	-mi-
=19	=19	=19	=19	=19	=19	=19	=19	=19	=19
2BB-y	-che	2F	-che	4d	-che	4f	-che	4b-y	-che
.	.	.	.	4B-y	in	4ff	in	4dd	in
2r	.	2r	.	8B-yL	Ciel,	4.ff	Ciel,	4.dd	Ciel,
.	.	.	.	8c	.	.	.	.	.
.	.	.	.	8d	.	.	.	.	.
.	.	.	.	8eJ	.	16eeL	.	16ccL	.
.	.	.	.	.	.	16ddJ	.	16b-yJ	.
4r	.	4r	.	2f	.	4cc	.	4a	.
4BB-y	in	4f	in	.	.	4dd	<in	4b-y	in
8BB-yL	Ciel	4.f	Ciel	4r	.	4.dd	Ciel>	4f	Ciel,
8C	.	.	.	.	.	.	.	.	.
8D	.	.	.	4f	in	.	.	4ff	in
8EJ	.	16eL	.	.	.	16ccL	.	.	.
.	.	16dJ	.	.	.	16b-yJ	.	.	.
=20	=20	=20	=20	=20	=20	=20	=20	=20	=20
2.F	.	4c	.	2.f	Ciel	2a	.	4.ff	Ciel
.	.	4c	sog-	.	.	.	.	.	.
.	.	.	.	.	.	.	.	16eeL	.
.	.	.	.	.	.	.	.	16ddJ	.
.	.	1.c	-gior-	.	.	4a	sog-	4cc	.
4E-X	sog-	.	.	4g	sog-	2b-y	-gior-	4ee-X	sog-
1F	-gior-	.	.	1f	-gior-	.	.	1cc	-gior-
.	.	.	.	.	.	8aL	.	.	.
.	.	.	.	.	.	8gJ	.	.	.
.	.	.	.	.	.	2a	.	.	.
=21	=21	=21	=21	=21	=21	=21	=21	=21	=21
2BB-y	-no,	2B-y	-no,	2f	-no,	4.b-y	-no,	1dd	-no,
.	.	.	.	.	.	16aL	.	.	.
.	.	.	.	.	.	16gJ	.	.	.
4B-y	Sia	4d	Sia	2r	.	2f	.	.	.
4B-y	l'un	4d	l'un	.	.	.	.	.	.
4B-y	ce-	4d	ce-	4f	Sia	2r	.	2r	.
8B-y	-ne-	8d	-ne-	4f	l'un	.	.	.	.
8B-y	-r'e	8d	-r'e	.	.	.	.	.	.
[2B-y	l'al-	[2d	l'al-	4f	ce-	4b-y	Sia	4dd	Sia
.	.	.	.	8f	-ne-	4b-y	l'un	4dd	l'un
.	.	.	.	8f	-r'e	.	.	.	.
=22	=22	=22	=22	=22	=22	=22	=22	=22	=22
4B-]	.	4d]	.	2.f	l'al-	4b-y	ce-	4dd	ce-
4BB-y	-tr'in	4D	-tr'in	.	.	8b-y	-ne-	8dd	-ne-
.	.	.	.	.	.	8b-y	-r'e	8dd	-r'e
4BB-y	un	4D	un	.	.	2.b-y	l'al-	2.dd	l'al-
4BB-y	se-	4D	se-	4F	-tr'in	.	.	.	.
1BB-y	-pol-	1D	-pol-	4F	un	.	.	.	.
.	.	.	.	4F	se-	4B-y	-tr'in	4d	-tr'in
.	.	.	.	2F	-pol-	4B-y	un	4d	un
.	.	.	.	.	.	4B-y	se-	4d	se-
=23	=23	=23	=23	=23	=23	=23	=23	=23	=23
0BB-y	-to:	1D	-to:	0F	-to:	1B-y	-pol-	1d	-pol-
.	.	2r	.	.	.	2B-y	-to:	4.d	-to:
.	.	.	.	.	.	.	.	8e	.
.	.	4d	Ciò	.	.	2r	.	2f	.
.	.	4e	ch'el	.	.	.	.	.	.
=24	=24	=24	=24	=24	=24	=24	=24	=24	=24
0r	.	4f	vi-	0r	.	4cc	Ciò	4a	Ciò
.	.	8e	-ver	.	.	4dd	ch'el	4b-y	ch'el
.	.	8d	non	.	.	.	.	.	.
.	.	4c	heb-	.	.	4ee-X	vi-	4cc	vi-
.	.	4d	-b'hab-	.	.	8dd	-ver	8b-y	-ver
.	.	.	.	.	.	8cc	non	8a	non
.	.	4e-X	-bia	.	.	4b-y	heb-	4g	heb-
.	.	8dL	.	.	.	4cc	-b'hab-	4a	-b'hab-
.	.	8cJ	.	.	.	.	.	.	.
.	.	4B-y	.	.	.	4dd	-bia	4b-y	-bia
.	.	4B-y	la	.	.	8ccL	.	8aL	.
.	.	.	.	.	.	8b-yJ	.	8gJ	.
=25	=25	=25	=25	=25	=25	=25	=25	=25	=25
0r	.	1f	mor-	1r	.	4cc	.	4a	.
.	.	.	.	.	.	4dd	la	2b-y	la
.	.	.	.	.	.	2cc	mor-	.	.
.	.	.	.	.	.	.	.	4a	mor-
.	.	2B-y	-te,	2r	.	1dd	-te,	4.b-y	-te,
.	.	.	.	.	.	.	.	16aL	.
.	.	.	.	.	.	.	.	16gJ	.
.	.	4B-y	<Ciò	4d	Ciò	.	.	2f	.
.	.	4c	ch'el	4e	ch'el	.	.	.	.
=26	=26	=26	=26	=26	=26	=26	=26	=26	=26
4D	Ciò	4d	vi-	4f	vi-	0r	.	0r	.
4E	ch'el	8c	-ver	8e	-ver	.	.	.	.
.	.	8B-y	non	8d	non	.	.	.	.
4F	vi-	4A	heb-	4c	heb-	.	.	.	.
8E	-ver	4BnX	-b'hab-	4d	-b'hab-	.	.	.	.
8D	non	.	.	.	.	.	.	.	.
4C	heb-	4c	-bia	4e-X	-bia	.	.	.	.
4D	-b'hab-	8B-iL	.	8dL	.	.	.	.	.
.	.	8AJ	.	8cJ	.	.	.	.	.
4E-X	-bia	4G	.	4B-y	.	.	.	.	.
8DL	.	4A	la	4c	la	.	.	.	.
8CJ	.	.	.	.	.	.	.	.	.
=27	=27	=27	=27	=27	=27	=27	=27	=27	=27
2BB-y	.	2B-y	mor-	2d	mor-	4b-y	<Ciò	4dd	<Ciò
.	.	.	.	.	.	4cc	ch'el	4ee	ch'el
2BB-y	la	2.F	-te,>	2B-y	-te.	4dd	vi-	4ff	vi-
.	.	.	.	.	.	8cc	-ver	8ee	-ver
.	.	.	.	.	.	8b-y	non	8dd	non
[1F	mor-	.	.	1r	.	4a	heb-	4cc	heb-
.	.	4f	la	.	.	4b-y	-b'hab-	4dd	-b'hab-
.	.	2f	mor-	.	.	4cc	-bia	4a	-bia
.	.	.	.	.	.	4dd	la	4b-y	la
=28	=28	=28	=28	=28	=28	=28	=28	=28	=28
1F]	.	1f	-te.	1r	.	4a	mor-	1cc	mor-
.	.	.	.	.	.	2b-y	.	.	.
.	.	.	.	.	.	4a	.	.	.
1BB-y	-te.	2r	.	2r	.	2b-y	-te.	2dd	-te.>
.	.	[2B-y	O	[2f	O	[2dd	O	[2b-y	O
=29	=29	=29	=29	=29	=29	=29	=29	=29	=29
0r	.	4B-]	.	4f]	.	4dd]	.	4b-]	.
.	.	8F	se	8f	se	8cc	se	8a	se
.	.	8F	spe-	8f	spe-	8cc	spe-	8a	spe-
.	.	4F	-rar	4f	-rar	4cc	-rar	4a	-rar
.	.	4G	ciò	4d	ciò	4b-y	ciò	4g	ciò
.	.	2D	li-	2d	li-	2a	li-	2f	li-
.	.	2D	-ce,	2d	-ce,	2a	-ce,	2f	-ce,
=30	=30	=30	=30	=30	=30	=30	=30	=30	=30
2r	.	2r	.	2r	.	2r	.	1dd	<O
2.BB-y	O	2.B-y	<O	2f	<O	2.b-y	O	.	.
.	.	.	.	4f	se	.	.	4dd	se
8F	se	8c	se	4f	spe-	8a	se	4cc	spe-
8F	spe-	8c	spe-	.	.	8a	spe-	.	.
4F	-rar	4c	-rar	4f	-rar	4a	-rar	4cc	-rar
4G	ciò	4G	ciò	4d	ciò	4g	ciò	4b-y	ciò
=31	=31	=31	=31	=31	=31	=31	=31	=31	=31
2D	li-	2.A	li-	2d	li-	2.f#X	li-	2a	li-
2D	-ce,	.	.	2d	-ce,>	.	.	2a	-ce,> al-
.	.	4D	-ce,> al-	.	.	4a	-ce, al-	.	.
1r	.	2A	-te-	1r	.	8aL	-te-	8ccL	-te-
.	.	.	.	.	.	8g	.	8b-y	.
.	.	.	.	.	.	8fnXi	.	8a	.
.	.	.	.	.	.	8eJ	.	8gJ	.
.	.	2B-y	-ra	.	.	4d	-ra	4f	.
.	.	.	.	.	.	[4g	sor-	4b-y	-ra
=32	=32	=32	=32	=32	=32	=32	=32	=32	=32
0r	.	1c	sor-	0r	.	4g]	.	4a	sor-
.	.	.	.	.	.	2f	.	8gL	.
.	.	.	.	.	.	.	.	8fJ	.
.	.	.	.	.	.	.	.	2g	.
.	.	.	.	.	.	4e	.	.	.
.	.	1F	-te,	.	.	1f	-te,	1a	-te,
=33	=33	=33	=33	=33	=33	=33	=33	=33	=33
2r	.	2r	.	2r	.	2r	.	1cc	O
2.F	O	2.A	O	2.c	O	2.f	O	.	.
.	.	.	.	.	.	.	.	4cc	se
8C	se	8G	se	8e	se	8g	se	4cc	spe-
8C	spe-	8G	spe-	8e	spe-	8g	spe-	.	.
4C	-rar	4G	-rar	4e	-rar	4g	-rar	4cc	-rar
4D	ciò	4D	ciò	4d	ciò	4f	ciò	4a	ciò
=34	=34	=34	=34	=34	=34	=34	=34	=34	=34
2AA	li-	2E	li-	1c#X	li-	4e	li-	2a	li-
.	.	.	.	.	.	4e	-ce al-	.	.
2AA	-ce, al-	4E	-ce, al-	.	.	2a	-te-	2e	-ce,
.	.	2A	-te-	.	.	.	.	.	.
2D	-te-	.	.	1d	-ce,	2f	-ra	4r	.
.	.	4A	-ra,	.	.	.	.	4a	al-
*	*	*	*	*	*	*lig	*	*	*
2BB-y	-ra	4r	.	.	.	[2g	sor-	4dd	-te-
.	.	[4G	al-	.	.	.	.	4dd	-ra
=35	=35	=35	=35	=35	=35	=35	=35	=35	=35
0C	sor-	4G]	.	4r	.	2g]	.	0cc	sor-
.	.	4c	-te-	4e	al-	.	.	.	.
.	.	2A	-ra	2f	-te-	1f	.	.	.
.	.	1G	sor-	2g	-ra	.	.	.	.
*	*	*	*	*	*	*Xlig	*	*	*
.	.	.	.	2cnXi	sor-	2e	.	.	.
=36	=36	=36	=36	=36	=36	=36	=36	=36	=36
0FFl	-te!"	0Gl	-te!"	0cl	-te!"	0fl	-te!"	0al	-te!"
==	==	==	==	==	==	==	==	==	==
*-	*-	*-	*-	*-	*-	*-	*-	*-	*-
!!!system-decoration: [*]
!!!RDF**kern: i = editorial accidental
!!!RDF**kern: l = terminal long
!!!ENC: Emiliano Ricciardi
!!!END:
!!!EED: Ricciardi, Emiliano
!!!EEV: 2020/08/04
!!!YEC: Copyright 2020 Emiliano Ricciardi, All Rights Reserved
!!!ONB: Translated from MusicXML on 2020/08/04 and edited by Craig Stuart Sapp
!!@@BEGIN:	VERSEDATA
!!@CATALOGNUM:	Tsg12099
!!@LAST_MODIFIED: 2020/07/12
!!@TITLE:		Ed amando morrò: felice giorno
!!@CANTO:		XII
!!@OTTAVA:	99
!!@MANUSRC:	G-Al, G-Am, G-Au, G-Br<sub>1</sub>, G-Br<sub>2</sub>, G-Cv, G-Es<sub>1</sub>, G-Es<sub>2</sub>, G-Es<sub>3</sub>, G-F, G-Fr, G-Fr<sub>1</sub>, G-Fr<sub>2</sub>, G-Mc, G-Mc<sub>1</sub>, G-Mg, G-Mr, G-Mt, G-N, G-Ol
!!@PRINTSRC:	G-1580CM, G-1581B, G-1581CV, G-1581R, G-1581MR, G-1581P, G-1581V, G-1581V<sub>bis</sub>, G-1582C, G-1582M, G-1582MC, G-1582P, G-1582SC, G-1582SC<sub>bis</sub>, G-1583S, G-1584O, G-1584S, G-1585C, G-1585S, G-1588S, G-1589S, G-1590B, G-1590S, G-1592S, G-1593S, G-1594C, G-1595C, G-1597C, G-1598C, G-1599C, G-1600C, G-1600S, G-1601C, G-1601R, G-1602C, G-1604C, G-1604Cl, G-1604F, G-1604P, G-1606B, G-1606B<sub>bis</sub>, G-1606L, G-1607ZR, G-1608DP, G-1609GC, G-1610M, G-1611S, G-1611V, G-1612P, G-1613M, G-1613P, G-1613V, G-1615P, G-1616M, G-1617P, G-1619B, G-1619V, G-1620M, G-1620S, G-1621R, G-1624I, G-1624MT, G-1625C, G-1625S, G-1625SS, G-1626C, G-1626Co, G-1627M, G-1628T, G-1628Tu, G-1630L, G-1630T, G-1632FT, G-1639CF, G-1642M, G-1643I, G-1644P, G-1644S
!!@@BEGIN:	VERSES
!!@ABOUTIT:
!!@ABOUTEN:
!!@EDITOR:	Angelo Solerti
!!@EDITION_TITLE: Gerusalemme liberata. Poema eroico di Torquato Tasso. Edizione critica sui manoscritti e le prime stampe.
!!@EDITION_LOC:	Florence
!!@EDITION_PUB:	G. Barbera
!!@EDITION_DATE:  1895
!!@EDITION_VOL:
!!@EDITION_PAGE:
!!@TRANSLATOR:	Emiliano Ricciardi and Amyrose McCue Gill
!!@VERSE:
!!	Ed amando morrò: felice giorno,
!!	Quando che sia; ma più felice molto,
!!	Se come errando or vado a te d’intorno,
!!	Allor sarò dentro al tuo grembo accolto.
!!	Faccian l’anime amiche in Ciel soggiorno;
!!	Sia l’un cenere e l’altro in un sepolto:
!!	Ciò che ’l viver non ebbe, abbia la morte.
!!	Oh (se sperar ciò lice) altera sorte!
!!@MVERSE_DATE: 20230824
!!@MVERSE:
!!	Ed a|man||do mor|rò||: fe|li||ce gior||no		=a
!!	Quan||do che sia; ma più fe|li||ce mol||to,		=b
!!	Se co||me_er|ran||do_or va||do_a te d’in|tor||no,	=a
!!	Al|lor|| sa|rò|| den||tro_al tuo grem||bo_ac|col||to.	=b
!!	Fac||cian l’a|ni||me_a|mi||che_in Ciel sog|gior||no;	=a
!!	Sia l’un ce||ne|re_e l’al||tro_in un se|pol||to:	=b
!!	Ciò che_’l vi||ver non eb||be,_ab||bia la mor||te.	=c
!!	Oh (se spe|rar|| ciò li||ce)_al|te||ra sor||te!		=c
!!@TVERSE:
!!	And loving I will die: happy day,
!!	When it will be; but much more happy,
!!	If, as I go wandering, now to you from all around,
!!	Then I will be within your lap embraced.
!!	May they make our souls friends in Heavenly rest;
!!	Be one ashes and the other in a tomb;
!!	That which life did not have, may death have.
!!	Oh (if it is permitted to hope) proud fate!
!!@@END:		VERSES
!!@OTHER_CRIT_ED:  Torquato Tasso, <i>Gerusalemme liberata</i>, ed. Lanfranco Caretti, 2 vols. (Bari: Laterza, 1967).
!!@ATTRIBUTION_ABOUT:
!!@DATING:	mid-1560s through 1570s
!!@DEDICATEE:	Duke Alfonso II d'Este
!!@COMMENTARY:
!!@@END:		VERSEDATA
!!@@BEGIN: SETTING
!!@CATALOGNUM:	Tsg12099c
!!@CANTO:		XII
!!@OTTAVA:	99
!!@TITLE:	Ed amando morrò: felice giorno
!!@SETTINGTITLE: Et amando morrò: felice giorno
!!@COMPOSER:	Cifra, Antonio
!!@PARTS:		4 of 4
!!@PRINCEPSTITLE:	Il primo libro de madrigali a cinque voci
!!@PRINCEPSLOC:	Rome
!!@NORMLOC:	Rome
!!@NORMPUB:	Lugii Zanetti
!!@NORMPUBSHORT:	Zanetti
!!@PRINCEPSPUB:	Luigi Zanetti
!!@PRINCEPSYEAR:	1605
!!@PRINCEPSRISM:	C 2212
!!@OVOICES:	5
!!@EXTANTVOICES:	5
!!@OMENSURATION:	C
!!@OCLEFS:	C1,C1,C3,C4,F4
!!@OTIME:		
!!@OKEYSIG:	b-
!!@FINAL:		(F)F
!!@TIMPEDITOR:	Ricciardi, Emiliano
!!@REPRINTS:	
!!@@END: SETTING
